X:1
T:Title
%%score ( 1 2 ) { ( 3 5 ) | 4 }
L:1/8
Q:1/4=140
M:3/4
K:F
V:1 treble nm="Grand Piano, Unnamed-000"
V:2 treble 
V:3 bass nm="Choir Pad, Unnamed-001"
V:5 bass 
V:4 bass 
V:1
 [CF]4 [EG]2 | z2 z G [FA]2 | B2- [GB]2 [FA]2 | [EG]2 [DF]2 [EG]2 | c2- [Cc]2 B-[FB] | %5
w: By~Rowland~Hugh~Prichard,~1855 *|||||
 [FA]4 A-[EA] | G2 z2 z2 | F6 | [CF]4 [EG]2 | z2 z G [FA]2 | [GB]4 [FA]2 | [EG]2 [DF]2 [EG]2 | %12
w: |||||||
 F2 z2 B2 | z2 z2 A2 | [DG]2 [DF]2 [EG]2 | F6 | [Ec]4 [Ec]2 | c2 z2 z2 | B4 z2 | %19
w: |||||||
 [EB]2 [FA]2 [CG]2 | [CA]4 [FA]2 | [FA]2 [GB]2 [Ac]2 | [Ac]2 [GB]2 [FA]2 | G6 | c2 A2 [Ac]2 | %25
w: ||||||
 [GB]2 G2 [GB]2 | [FA]2 [CF]2 [FA]2 | G[EA] BA [CG]2 | c4 z2 | [Dd]2 [Fc]2 [FB]2 | [FA]4 [EG]2 | %31
w: ||||||
 F6- | F2 z2 z2 |] %33
w: ||
V:2
 x6 | F4 z2 | F2 z2 z2 | x6 | F2 z2 .E2 | z2 z2 .F2 | D2- [DF]2 [EG]2 | x6 | x6 | F4 z2 | x6 | x6 | %12
 c2- [Cc]2 DE | [FA]4 FE | x6 | x6 | x6 | F2- [FB]2 [FA]2 | F2 E2 [DB]2 | x6 | x6 | x6 | x6 | %23
 F4 E2 | F4 z2 | x6 | x6 | z2 F2 z2 | C2 F2 [_Ec]2 | x6 | x6 | x6 | x6 |] %33
V:3
 A,4 C2 | A,3 B, C2 | D2 C2 C2 | C2 A,2 C2 | A,4 C2 | C4 C2 | B,2 A,2 C2 | A,6 | [F,A,]4 G,2 | %9
 z2 z B,[K:treble] C2 | D2 C2 C2 | C2 A,2 C2 | C4 C2 | C4 C2 | B,2 A,2 C2 | A,6 | C4 A,2 | %17
 F,2 G,2 A,2 | G,4 G,2 | G,2 C2 B,2 | A,4[K:treble] C2 | D4 C2 | D4 D2 | G,6 | C4 D2 | D4 C2 | %26
 C2[K:bass] A,2 =B,2 | C2 B,2 B,2 | A,4[K:treble] C2 | B,2 C2 D2 | C4[K:bass] B,2 | A,6- | %32
 A,2 z2 z2 |] %33
V:4
 F,4 C,2 | F,4 F,2 | D,2 E,2 F,2 | C,2 D,2 C,2 | z2 z2 G,2 | F,4 A,,2 | B,,2 D,2 C,2 | F,6 | %8
 F,,2 A,,2 C,2 | z2 z2 F,2 | F,2 E,2 F,2 | C,2 D,2 C,2 | A,4 G,2 | F,4 A,,2 | B,,2 D,2 C,2 | F,6 | %16
 A,4 F,2 | D,4 D,2 | z6 | C,2 D,2 E,2 | F,4 E,2 | D,4 A,,2 | G,,4 B,,2 | C,6 | A,4 F,2 | %25
 F,2 E,D, E,2 | F,2 E,2 D,2 | E,C, D,2 E,2 | F,4 A,,2 | B,,2 A,,2 B,,2 | C,4 C,2 | [F,,F,]6- | %32
 [F,,F,]2 z2 z2 |] %33
V:5
 x6 | x6 | x6 | x6 | x6 | x6 | x6 | x6 | x6 | A,4[K:treble] z2 | x6 | x6 | x6 | x6 | x6 | x6 | x6 | %17
 x6 | x6 | x6 | x4[K:treble] x2 | x6 | x6 | x6 | x6 | x6 | x2[K:bass] x4 | x6 | x4[K:treble] x2 | %29
 x6 | x4[K:bass] x2 | x6 | x6 |] %33

